X: 808
T: Wedding Supper
%R: slip-jig, triple hornpipe
B: "The Compleat Country Dancing-Master" printed by John Walsh, London ca. 1740
S: 6: CCDM2 http://imslp.org/wiki/The_Compleat_Country_Dancing-Master_(Various) V.2 (130)
Z: 2013 John Chambers <jc:trillian.mit.edu>
M: 9/4
L: 1/4
K: Gm
% - - - - - - - - - - - - - - - - - - - - - - - - -
D |\
G>AB A2G B2c | d>ed c>dc A2^F |\
GAB A2G B2c | d>ed c>BA B2 |]
(g//a//b/) |\
f>ed d=e^f g2g | a^fd (c/d/c/)(B/A/G/) ^F2d |\
ecc dd/=e/^f g2g | b>ag a>g^f g2 |]
% - - - - - - - - - - - - - - - - - - - - - - - - -
%%begintext align
%% The 1st and 2d Cu. take Hands and go round then back
%% again into your own Places then cross over and turn
%% below the 2d Cu. and then the figure of eight then right
%% Hands and left so down to the Bottom
%%endtext
%%sep 1 8 500

%%sep 1 1 500
%%sep 1 1 500
